X:298
T:O sacred head now wounded
Z:Jack Campin, http://www.campin.me.uk/
F:Jack Campin's Nine-Note Tunebook
% last edit 03-02-2013
G:love song made into a hymn by Luther
M:C
L:1/4
Q:1/4=100
K:AMin
E|A G F E|D2 E B|c c B/A/ B|A3:|
c|B G A B|c2 c G|A G F    F|E3
c|B d c B|A2 B E|F E D    G|E3|]

